public/icons/iconinternational2.svg

<svg width="69" height="68" viewBox="0 0 69 68" fill="none" xmlns="http://www.w3.org/2000/svg">
<g clip-path="url(#clip0_11308_6641)">
<path d="M67.8824 26.2632C67.7016 25.8267 67.4355 25.4306 67.0997 25.0983C66.7638 24.766 66.365 24.504 65.9266 24.3279C65.4882 24.1517 65.019 24.0649 64.5466 24.0724C64.0742 24.08 63.608 24.1819 63.1755 24.372L58.0436 26.6351L41.458 21.0676C41.2109 20.9775 40.94 20.9775 40.693 21.0676L36.8149 22.7676C36.6298 22.8483 36.4716 22.9799 36.3587 23.1472C36.2457 23.3145 36.1828 23.5105 36.1772 23.7123C36.1717 23.9141 36.2237 24.1132 36.3272 24.2865C36.4307 24.4598 36.5814 24.6 36.7617 24.6907L48.5555 30.7364L39.6517 34.657L31.2899 30.6407C31.15 30.576 30.9977 30.5425 30.8436 30.5425C30.6895 30.5425 30.5372 30.576 30.3974 30.6407L27.1355 32.107C26.9634 32.1823 26.8144 32.3019 26.7036 32.4536C26.5928 32.6052 26.5242 32.7836 26.5047 32.9704C26.4853 33.1572 26.5157 33.3458 26.5929 33.5171C26.6701 33.6883 26.7914 33.836 26.9442 33.9451L38.5149 42.2007C38.6693 42.305 38.8473 42.3692 39.0327 42.3878C39.2181 42.4063 39.4053 42.3786 39.5774 42.307L66.1399 30.6195C66.9273 30.2483 67.5448 29.5925 67.8682 28.7842C68.1915 27.9759 68.1965 27.0751 67.8824 26.2632ZM65.8955 27.9526C65.8367 28.1098 65.7473 28.2536 65.6323 28.3758C65.5174 28.4981 65.3793 28.5962 65.2261 28.6645L39.2586 40.0757L29.6961 33.3076L30.7586 32.8189L39.1205 36.8351C39.267 36.8917 39.4208 36.9275 39.5774 36.9414C39.7245 36.9243 39.8702 36.8959 40.013 36.8564L51.403 31.8414C51.527 31.7759 51.6414 31.6937 51.743 31.597C51.857 31.4772 51.9414 31.3324 51.9896 31.1742C52.0378 31.016 52.0484 30.8487 52.0205 30.6857C51.9926 30.5227 51.9271 30.3684 51.8291 30.2352C51.7311 30.1019 51.6034 29.9934 51.4561 29.9182L39.6624 23.8726L41.1286 23.2245L57.7036 28.7601C57.9716 28.8283 58.2543 28.8097 58.5111 28.707L64.0255 26.2632C64.2659 26.1446 64.5363 26.1003 64.802 26.136C65.0677 26.1717 65.3168 26.2858 65.5175 26.4636C65.7181 26.6414 65.8612 26.875 65.9286 27.1346C65.9959 27.3941 65.9844 27.6678 65.8955 27.9207V27.9526Z" fill="#3A67B1"/>
<path d="M59.0011 32.4291C58.8616 32.4219 58.7219 32.4424 58.5903 32.4893C58.4586 32.5361 58.3375 32.6085 58.2339 32.7023C58.1303 32.7961 58.0461 32.9093 57.9864 33.0357C57.9266 33.162 57.8923 33.2989 57.8855 33.4384C56.8124 53.2966 30.9405 59.7566 20.4749 43.1922C22.5999 42.8947 30.4517 39.5691 28.5392 37.4653C28.3402 37.2674 28.0709 37.1564 27.7902 37.1564C27.5095 37.1564 27.2402 37.2674 27.0411 37.4653C24.9254 39.4509 22.2656 40.7604 19.4017 41.2266C9.11675 18.5103 39.4724 0.766575 54.3049 20.8584C54.4655 21.0909 54.7119 21.2501 54.9899 21.3009C55.2678 21.3517 55.5546 21.29 55.7871 21.1294C56.0195 20.9688 56.1787 20.7224 56.2295 20.4444C56.2803 20.1664 56.2186 19.8797 56.058 19.6472C39.9186 -2.25093 6.74737 16.4916 17.1917 41.5666C8.69175 42.5334 -0.41388 35.7228 11.6561 31.4941C11.7894 31.4522 11.9131 31.3845 12.0202 31.2949C12.1272 31.2052 12.2156 31.0953 12.2803 30.9715C12.3449 30.8477 12.3845 30.7123 12.3968 30.5732C12.4091 30.4341 12.3939 30.2939 12.3521 30.1606C12.3102 30.0274 12.2425 29.9037 12.1528 29.7966C12.0632 29.6895 11.9533 29.6011 11.8295 29.5365C11.7057 29.4719 11.5703 29.4323 11.4312 29.42C11.2921 29.4076 11.1519 29.4228 11.0186 29.4647C7.63987 30.5272 5.21737 32.2697 4.19737 34.3841C1.3605 41.8216 12.6974 44.5416 18.233 43.5853C29.3361 62.6891 58.7036 55.9209 59.9999 33.5447C60.0144 33.2646 59.9175 32.9901 59.7304 32.7811C59.5433 32.5721 59.2812 32.4455 59.0011 32.4291Z" fill="#3A67B1"/>
</g>
<defs>
<clipPath id="clip0_11308_6641">
<rect width="68" height="68" fill="white" transform="translate(0.5)"/>
</clipPath>
</defs>
</svg>

<svg xmlns="http://www.w3.org/2000/svg" fill="none" viewBox="0 0 69 68">
  <g fill="#3A67B1" clip-path="url(#a)">
    <path d="M67.882 26.263a3.55 3.55 0 0 0-4.707-1.891l-5.131 2.263-16.586-5.567a1.116 1.116 0 0 0-.765 0l-3.878 1.7a1.062 1.062 0 0 0-.053 1.923l11.794 6.045-8.904 3.921-8.362-4.016a1.063 1.063 0 0 0-.893 0l-3.261 1.466a1.062 1.062 0 0 0-.192 1.838l11.57 8.256a1.126 1.126 0 0 0 1.063.106L66.14 30.619a3.443 3.443 0 0 0 1.742-4.356Zm-1.987 1.69a1.263 1.263 0 0 1-.669.712L39.26 40.075l-9.563-6.767 1.063-.49 8.361 4.017c.147.057.3.093.457.106a2.8 2.8 0 0 0 .436-.085l11.39-5.015a1.51 1.51 0 0 0 .34-.244 1.062 1.062 0 0 0-.287-1.679l-11.794-6.045 1.467-.649 16.575 5.536c.268.068.55.05.807-.053l5.514-2.444a1.35 1.35 0 0 1 1.87 1.658v.032Z"/>
    <path d="M59.001 32.43a1.061 1.061 0 0 0-1.115 1.008c-1.074 19.859-26.946 26.319-37.411 9.754 2.125-.297 9.977-3.623 8.064-5.727a1.062 1.062 0 0 0-1.498 0 14.588 14.588 0 0 1-7.64 3.762C9.118 18.51 39.473.767 54.306 20.858a1.065 1.065 0 1 0 1.753-1.21c-16.14-21.899-49.31-3.156-38.866 21.919-8.5.966-17.606-5.844-5.536-10.073a1.065 1.065 0 0 0 .497-1.697 1.062 1.062 0 0 0-1.134-.332c-3.38 1.062-5.802 2.805-6.822 4.92-2.837 7.437 8.5 10.157 14.036 9.2C29.336 62.69 58.703 55.921 60 33.545a1.063 1.063 0 0 0-1-1.116Z"/>
  </g>
  <defs>
    <clipPath id="a">
      <path fill="#fff" d="M0 0h68v68H0z" transform="translate(.5)"/>
    </clipPath>
  </defs>
</svg>
